X:30
T:Carpenter's wife - Paddon 2
%%VWML:SBG-1-2-344-0
F:http://www.vwml.org/record/SBG/1/2/344
Z:Original Sibelius transcriptions by M. & S. Graebe
M:6/8
I:linebreak $
K:C
V:1 treble nm="P1"
V:1
 A | A2 B c2 c | BA ^G A3 c | c2 d e2 e | d2 c/d/ e2 e |$ a2 a g2 e/d/ | c2 d !fermata!e2 d | %7
 c2 B/A/ ^G2 A/B/ | !fermata!c2 B A3 | %9
T:Carpenter's wife - 2 additional bars
F:http://www.vwml.org/record/SBG/1/2/416
Z:Original Sibelius transcriptions by M. & S. Graebe
M:4/4
I:linebreak $
K:C
V:1 treble nm="P1" snm="Voice"
V:1
 d c a2 a ge d c2 d | e2 e/ e/ d2 c B2 A A4 | %2
T:Carpenter's wife - Paddon
F:http://www.vwml.org/record/SBG/1/2/416
Z:Original Sibelius transcriptions by M. & S. Graebe
L:1/8
M:6/8
I:linebreak $
K:C
V:1 treble nm="P1"
V:2 treble 
V:1
 A | A2 B c2 c | BA ^G A2 c | c2 d e2 e | dc d e2 e | a2 a ged |$ ed e d2 [ce] | B2 A ^G2 A/B/ | %8
 B B A3 z | c2 cd d ^c/ z/ | d2 x x3 | %11
V:2
 x | x6 | x6 | x6 | cd e2 x x | x3 x2 g/g/ |$ c2 c d2 x | x6 | x6 | x6 | x6 | %11

